X:58
T:Lydia has no Faith in Cats
C:Ed Yother
C:http://edyother.com
M:6/8
L:1/8
R:jig
K:Bmin
FBB dBc | ded cBA | eA/A/A cAc | dcB AFE |
FB/B/B dBc | ded cBA | gfe dAB | cdc BB/B/B :|
|: fd/d/d Bdd | FBd fed | ec/c/c Acc |EAc edc |
dc/d/d ede | fdf bb/b/b | afd eAB | cdc BB/B/B:|

